img/avatar2.svg

<?xml version="1.0" encoding="UTF-8"?>
<svg width="156px" height="190px" viewBox="0 0 156 190" version="1.1" xmlns="http://www.w3.org/2000/svg" xmlns:xlink="http://www.w3.org/1999/xlink">
    <!-- Generator: Sketch 48.2 (47327) - http://www.bohemiancoding.com/sketch -->
    <title>avataaar</title>
    <desc>Created with Sketch.</desc>
    <defs>
        <path d="M57.5757576,103.060244 C45.1605961,97.1624441 36.0644246,85.4121705 33.8524518,71.3746319 C29.3002761,70.8785674 25.7575758,67.0218359 25.7575758,62.3376623 L25.7575758,53.3766234 C25.7575758,48.8720835 29.0337677,45.1327393 33.3333333,44.4114089 L33.3333333,42.4242424 C33.3333333,18.9939803 52.3273136,4.30406933e-15 75.7575758,0 C99.1878379,-4.30406933e-15 118.181818,18.9939803 118.181818,42.4242424 L118.181818,44.4114089 C122.481384,45.1327393 125.757576,48.8720835 125.757576,53.3766234 L125.757576,62.3376623 C125.757576,67.0218359 122.214875,70.8785674 117.6627,71.3746319 C115.450727,85.4121705 106.354555,97.1624441 93.9393939,103.060244 L93.9393939,116.429241 C125.76356,116.58078 151.515152,142.425944 151.515152,174.285714 L0,174.285714 C-3.90169656e-15,142.425944 25.7515919,116.58078 57.5757576,116.429241 L57.5757576,103.060244 Z" id="path-1"></path>
        <path d="M81.8181818,9.38727239 L81.8181818,22.0363636 C81.8181818,32.0779045 89.9584591,40.2181818 100,40.2181818 C110.041541,40.2181818 118.181818,32.0779045 118.181818,22.0363636 L118.181818,9.38727239 C131.894422,10.8418856 142.424242,14.8400718 142.424242,25.1916084 C142.424242,25.5852688 142.409014,25.97485 142.378961,26.360287 C162.106463,35.6686543 175.757576,55.7401331 175.757576,79 L24.2424242,79 C24.2424242,55.7401331 37.8935368,35.6686543 57.6210387,26.360287 C57.590986,25.97485 57.5757576,25.5852688 57.5757576,25.1916084 C57.5757576,14.8400718 68.1055778,10.8418856 81.8181818,9.38727239 Z" id="path-3"></path>
        <rect id="path-5" x="0" y="0" width="200" height="200"></rect>
        <path d="M15.9493732,112.137112 C15.9480368,111.926066 15.9473684,111.714993 15.9473684,111.503896 L15.9473684,62.9222598 C15.9473684,60.3170429 16.1639421,57.7624096 16.5800677,55.2753815 C14.1024811,34.6996412 24.9861927,18.345609 37.9699248,9.28571429 C53.0854816,-1.25686938 78.5536529,-4.29877323 87.3665709,8.23007475 C93.9363354,5.48645384 103.672361,7.98722245 110.87218,14.2857143 C118.547284,21.3915769 124.585511,37.5625659 119.807818,50.0382549 C120.330281,52.6307559 120.604234,55.3116013 120.604234,58.0542857 L120.604234,66.7977749 C119.93495,63.0206644 116.939011,60.0473239 113.150376,59.4117113 L113.150376,59.2857143 C108.566533,43.9030062 95.0991062,36.8428908 86.8977299,29.840795 C74.0682031,43.3380416 34.038246,43.3855763 20.5037594,70 L20.5037594,76.6015038 C20.5037594,81.2640519 24.0053992,85.1087483 28.5223561,85.6492701 C30.5606646,100.002659 39.7654509,112.049116 52.3984962,118.050421 L52.3984962,118.571429 C54.6238157,149.896509 47.3549223,189.141023 0,177.142857 C10.392372,171.422401 15.8652186,134.6143 15.9493732,112.137112 Z M88.8496241,118.050421 C101.482669,112.049116 110.687456,100.002659 112.725764,85.6492701 C117.215464,85.11201 120.702063,81.3103325 120.743979,76.6858209 C121.529991,91.5382101 125.621035,106.052141 132.745321,119.158513 L145.734448,143.054286 C151.337807,153.362646 150.546906,165.429985 144.709413,174.698656 C138.255495,149.850847 115.701663,131.493641 88.8496241,131.428744 L88.8496241,118.050421 Z M67.4831313,189.285714 L118.244583,189.285714 L67.4831313,189.285714 Z" id="path-7"></path>
        <filter x="-1.0%" y="-2.8%" width="102.0%" height="113.5%" filterUnits="objectBoundingBox" id="filter-9">
            <feOffset dx="0" dy="2" in="SourceAlpha" result="shadowOffsetOuter1"></feOffset>
            <feColorMatrix values="0 0 0 0 0   0 0 0 0 0   0 0 0 0 0  0 0 0 0.16 0" type="matrix" in="shadowOffsetOuter1" result="shadowMatrixOuter1"></feColorMatrix>
            <feMerge>
                <feMergeNode in="shadowMatrixOuter1"></feMergeNode>
                <feMergeNode in="SourceGraphic"></feMergeNode>
            </feMerge>
        </filter>
    </defs>
    <g id="Page-5" stroke="none" stroke-width="1" fill="none" fill-rule="evenodd">
        <g id="Avataaar/Default" transform="translate(-24.000000, -10.000000)">
            <g id="Body" stroke-width="1" fill-rule="evenodd" transform="translate(24.242424, 25.714286)">
                <mask id="mask-2" fill="white">
                    <use xlink:href="#path-1"></use>
                </mask>
                <use fill="#D0C6AC" xlink:href="#path-1"></use>
                <g id="Skin/👶🏻-05-Pale" mask="url(#mask-2)" fill="#FFDBB4">
                    <g transform="translate(-24.242424, 0.000000)" id="Color">
                        <rect x="0" y="0" width="200" height="174"></rect>
                    </g>
                </g>
                <path d="M118.181818,64.7186147 L118.181818,70.4329004 C118.181818,93.8631625 99.1878379,112.857143 75.7575758,112.857143 C52.3273136,112.857143 33.3333333,93.8631625 33.3333333,70.4329004 L33.3333333,64.7186147 C33.3333333,88.1488768 52.3273136,107.142857 75.7575758,107.142857 C99.1878379,107.142857 118.181818,88.1488768 118.181818,64.7186147 Z" id="Neck-Shadow" fill-opacity="0.100000001" fill="#000000" mask="url(#mask-2)"></path>
            </g>
            <g id="Clothing/Hoodie" transform="translate(0.000000, 121.428571)">
                <mask id="mask-4" fill="white">
                    <use xlink:href="#path-3"></use>
                </mask>
                <use id="Hoodie" fill="#B7C1DB" fill-rule="evenodd" xlink:href="#path-3"></use>
                <g id="Color/Palette/Red" mask="url(#mask-4)" fill="#FF5C5C" fill-rule="evenodd">
                    <rect id="🖍Color" x="0" y="0" width="200" height="79"></rect>
                </g>
                <path d="M77.2727273,44.3398654 L77.2727273,79 L71.969697,79 L71.969697,41.7624613 C73.6392077,42.7031323 75.4142192,43.5654748 77.2727273,44.3398654 Z M128.030303,41.7624613 L128.030303,70.6030303 C128.030303,72.0674217 126.843179,73.2545455 125.378788,73.2545455 C123.914396,73.2545455 122.727273,72.0674217 122.727273,70.6030303 L122.727273,44.3398654 C124.585781,43.5654748 126.360792,42.7031323 128.030303,41.7624613 Z" id="Straps" fill="#F4F4F4" fill-rule="evenodd" mask="url(#mask-4)"></path>
                <path d="M100,48.8363636 C121.347572,48.8363636 142.424242,36.9640823 142.424242,22.3188811 C142.424242,15.5888937 137.973425,11.5443847 131.090808,9.13839947 C142.492947,11.1829371 150.378788,15.2562536 150.378788,23.2027972 C150.378788,37.359825 125.350242,48.8363636 100,48.8363636 Z M99.996164,48.8363635 C74.6472332,48.8352059 49.6212121,37.3591109 49.6212121,23.2027972 C49.6212121,15.2562536 57.5070527,11.1829371 68.9091916,9.13839947 Z" id="Shadow" fill-opacity="0.16" fill="#000000" fill-rule="evenodd" mask="url(#mask-4)"></path>
            </g>
            <g id="Face" stroke-width="1" fill-rule="evenodd" transform="translate(57.575758, 58.571429)" fill="#000000">
                <g id="Mouth/Default" transform="translate(1.515152, 37.142857)" fill-opacity="0.699999988">
                    <path d="M30.3703704,10.5681818 C30.3703704,16.0157178 35.1294177,20.4318182 41,20.4318182 C46.8705823,20.4318182 51.6296296,16.0157178 51.6296296,10.5681818" id="Mouth"></path>
                </g>
                <g id="Nose/Default" transform="translate(21.212121, 28.571429)" fill-opacity="0.16">
                    <path d="M12,5.66666667 C12,8.79628025 16.0294373,11.3333333 21,11.3333333 C25.9705627,11.3333333 30,8.79628025 30,5.66666667" id="Nose"></path>
                </g>
                <g id="Eyes/Wink-😉" transform="translate(0.000000, 5.714286)" fill-opacity="0.599999964">
                    <ellipse id="Eye" cx="22.7678571" cy="15.5" rx="4.55357143" ry="4.22727273"></ellipse>
                    <path d="M53.4379805,17.0534445 C54.8393486,14.3770147 57.9947812,12.5110204 61.6628028,12.5110204 C65.3178759,12.5110204 68.4639726,14.3638637 69.8727186,17.0251307 C70.2911985,17.8156825 69.6957,18.4626553 69.0950106,17.9832411 C67.2348002,16.4985951 64.5931293,15.5714168 61.6628028,15.5714168 C58.8241259,15.5714168 56.2563308,16.4415047 54.4074144,17.8455858 C53.7314016,18.3589551 53.0281088,17.8362459 53.4379805,17.0534445 Z" id="Winky-Wink" transform="translate(61.664639, 15.329202) rotate(-4.000000) translate(-61.664639, -15.329202) "></path>
                </g>
                <g id="Eyebrow/Outline/Default" fill-opacity="0.599999964">
                    <g id="I-Browse" transform="translate(9.107143, 4.250000)">
                        <path d="M2.75509693,7.90399186 C5.72623371,4.00198893 13.8716355,1.81392636 20.8880114,3.42208616 C21.7021126,3.60867889 22.5241398,3.14398009 22.7240606,2.38415233 C22.9239814,1.62432457 22.4260898,0.857099171 21.6119886,0.670506435 C13.4636686,-1.19709601 4.03150418,1.33662381 0.28061736,6.26267481 C-0.204993913,6.90042956 -0.0447285115,7.78485328 0.638580152,8.23809046 C1.32188882,8.69132765 2.26948565,8.54174661 2.75509693,7.90399186 Z" id="Eyebrow" fill-rule="nonzero"></path>
                        <path d="M46.7729541,7.90399186 C49.7440909,4.00198893 57.8894926,1.81392636 64.9058685,3.42208616 C65.7199697,3.60867889 66.5419969,3.14398009 66.7419177,2.38415233 C66.9418385,1.62432457 66.4439469,0.857099171 65.6298458,0.670506435 C57.4815257,-1.19709601 48.0493613,1.33662381 44.2984745,6.26267481 C43.8128632,6.90042956 43.9731286,7.78485328 44.6564373,8.23809046 C45.339746,8.69132765 46.2873428,8.54174661 46.7729541,7.90399186 Z" id="Eyebrow" fill-rule="nonzero" transform="translate(55.401902, 4.277765) scale(-1, 1) translate(-55.401902, -4.277765) "></path>
                    </g>
                </g>
            </g>
            <g id="Top" stroke-width="1" fill-rule="evenodd">
                <mask id="mask-6" fill="white">
                    <use xlink:href="#path-5"></use>
                </mask>
                <g id="Mask"></g>
                <g id="Top/Long-Hair/Straight" mask="url(#mask-6)">
                    <g transform="translate(-0.757576, 0.000000)">
                        <g id="Hair" stroke-width="1" fill="none" fill-rule="evenodd" transform="translate(30.375940, 10.714286)">
                            <mask id="mask-8" fill="white">
                                <use xlink:href="#path-7"></use>
                            </mask>
                            <use fill="#272C2E" xlink:href="#path-7"></use>
                            <g id="Color/Hair/Brown" mask="url(#mask-8)" fill="#724133">
                                <g transform="translate(-29.616541, -10.714286)" id="Color">
                                    <rect x="0" y="0" width="200" height="200"></rect>
                                </g>
                            </g>
                        </g>
                        <path d="M50.8796992,80.7142857 C64.4141858,54.099862 104.444143,54.0523273 117.27367,40.5550807 C125.458362,47.5429324 138.887702,54.5885679 143.498231,69.9062258 C138.887702,56.6189656 125.458362,51.9273511 117.27367,45.8631177 C104.444143,57.5763677 64.4141858,57.6176195 50.8796992,80.7142857 Z" id="Shadow" fill-opacity="0.16" fill="#000000" fill-rule="evenodd"></path>
                        <g id="Facial-Hair/-Blank" fill="none" transform="translate(37.210526, 51.428571)"></g>
                        <g id="Top/_Resources/Kurt" fill="none" transform="translate(47.082707, 60.714286)" fill-rule="evenodd" stroke-width="1">
                            <g id="Kurts" filter="url(#filter-9)" transform="translate(3.802817, 1.444444)">
                                <path d="M50.1971831,8.02469136 C41.8025093,8.02469136 40.5916969,1.46365635 23.3269263,0.534979424 C6.07349618,-0.204533298 0.620030437,4.65796175 0.590555095,8.02469136 C0.6185182,11.125313 -0.267941586,19.1831367 10.9252693,28.6213992 C22.1603607,39.8248361 33.6704574,36.0257662 37.7955261,32.3662551 C41.9338202,30.6750252 46.6532196,15.4986253 50.1971831,15.5144033 C53.7411466,15.5301813 58.460546,30.6750252 62.5988401,32.3662551 C66.7239088,36.0257662 78.2340055,39.8248361 89.4690969,28.6213992 C100.662308,19.1831367 99.775848,11.125313 99.8038111,8.02469136 C99.7743358,4.65796175 94.32087,-0.204533298 77.0674399,0.534979424 C59.8026693,1.46365635 58.5918568,8.02469136 50.1971831,8.02469136 Z" id="It!" fill="#F4F4F4" fill-rule="nonzero"></path>
                                <path d="M41.9294118,15.5144033 C42.2191494,9.98352989 32.1076769,4.0750902 21.2599834,4.27983539 C10.4176984,4.49547857 9.006435,11.1068376 8.85832643,13.6419753 C8.5930189,19.5159346 15.2222676,32.7193821 27.4608119,32.3662551 C39.6993349,31.998668 41.7619599,19.1637554 41.9294118,15.5144033 Z" id="Did" fill="#2F383B" fill-rule="nonzero"></path>
                                <path d="M91.5360398,15.5144033 C91.8257774,9.98352989 81.7143049,4.0750902 70.8666114,4.27983539 C60.0243264,4.49547857 58.613063,11.1068376 58.4649544,13.6419753 C58.1996469,19.5159346 64.8288956,32.7193821 77.0674399,32.3662551 C89.3059629,31.998668 91.3685879,19.1637554 91.5360398,15.5144033 Z" id="Courtney" fill="#2F383B" fill-rule="nonzero" transform="translate(75.000497, 18.323045) scale(-1, 1) translate(-75.000497, -18.323045) "></path>
                            </g>
                        </g>
                    </g>
                </g>
            </g>
        </g>
    </g>
</svg>

<?xml version="1.0" encoding="UTF-8"?>
<svg version="1.1" viewBox="0 0 156 190" xmlns="http://www.w3.org/2000/svg" xmlns:xlink="http://www.w3.org/1999/xlink">
<title>avataaar</title>
<desc>Created with Sketch.</desc>
<defs>
<path id="d" d="m57.576 103.06c-12.415-5.8978-21.511-17.648-23.723-31.686-4.5522-0.49606-8.0949-4.3528-8.0949-9.037v-8.961c0-4.5045 3.2762-8.2439 7.5758-8.9652v-1.9872c0-23.43 18.994-42.424 42.424-42.424 23.43-4.3041e-15 42.424 18.994 42.424 42.424v1.9872c4.2996 0.72133 7.5758 4.4607 7.5758 8.9652v8.961c0 4.6842-3.5427 8.5409-8.0949 9.037-2.212 14.038-11.308 25.788-23.723 31.686v13.369c31.824 0.15154 57.576 25.997 57.576 57.856h-151.52c-3.9017e-15 -31.86 25.752-57.705 57.576-57.856v-13.369z"/>
<path id="c" d="m81.818 9.3873v12.649c0 10.042 8.1403 18.182 18.182 18.182 10.042 0 18.182-8.1403 18.182-18.182v-12.649c13.713 1.4546 24.242 5.4528 24.242 15.804 0 0.39366-0.015228 0.78324-0.045281 1.1687 19.728 9.3084 33.379 29.38 33.379 52.64h-151.52c0-23.26 13.651-43.331 33.379-52.64-0.030053-0.38544-0.045281-0.77502-0.045281-1.1687 0-10.352 10.53-14.35 24.242-15.804z"/>
<rect id="f" width="200" height="200"/>
<path id="b" d="m15.949 112.14c-0.0013364-0.21105-0.0020048-0.42212-0.0020048-0.63322v-48.582c0-2.6052 0.21657-5.1599 0.6327-7.6469-2.4776-20.576 8.4061-36.93 21.39-45.99 15.116-10.543 40.584-13.584 49.397-1.0556 6.5698-2.7436 16.306-0.24285 23.506 6.0556 7.6751 7.1059 13.713 23.277 8.9356 35.753 0.52246 2.5925 0.79642 5.2733 0.79642 8.016v8.7435c-0.66928-3.7771-3.6652-6.7505-7.4539-7.3861v-0.126c-4.5838-15.383-18.051-22.443-26.253-29.445-12.83 13.497-52.859 13.545-66.394 40.159v6.6015c0 4.6625 3.5016 8.5072 8.0186 9.0478 2.0383 14.353 11.243 26.4 23.876 32.401v0.52101c2.2253 31.325-5.0436 70.57-52.398 58.571 10.392-5.7205 15.865-42.529 15.949-65.006zm72.9 5.9133c12.633-6.0013 21.838-18.048 23.876-32.401 4.4897-0.53726 7.9763-4.3389 8.0182-8.9634 0.78601 14.852 4.8771 29.366 12.001 42.473l12.989 23.896c5.6034 10.308 4.8125 22.376-1.025 31.644-6.4539-24.848-29.008-43.205-55.86-43.27v-13.378zm-21.366 71.235h50.761-50.761z"/>
<filter id="i" x="-1%" y="-2.8%" width="102%" height="113.5%">
<feOffset dx="0" dy="2" in="SourceAlpha" result="shadowOffsetOuter1"/>
<feColorMatrix in="shadowOffsetOuter1" result="shadowMatrixOuter1" values="0 0 0 0 0   0 0 0 0 0   0 0 0 0 0  0 0 0 0.16 0"/>
<feMerge>
<feMergeNode in="shadowMatrixOuter1"/>
<feMergeNode in="SourceGraphic"/>
</feMerge>
</filter>
</defs>
<g fill="none" fill-rule="evenodd">
<g transform="translate(-24 -10)" fill-rule="evenodd">
<g transform="translate(24.242 25.714)">
<mask id="e" fill="white">
<use xlink:href="#d"/>
</mask>
<use fill="#D0C6AC" xlink:href="#d"/>
<g fill="#FFDBB4" mask="url(#e)">
<g transform="translate(-24.242)">
<rect width="200" height="174"/>
</g>
</g>
<path d="m118.18 64.719v5.7143c0 23.43-18.994 42.424-42.424 42.424-23.43 0-42.424-18.994-42.424-42.424v-5.7143c0 23.43 18.994 42.424 42.424 42.424 23.43 0 42.424-18.994 42.424-42.424z" fill="#000" fill-opacity=".1" mask="url(#e)"/>
</g>
<g transform="translate(0 121.43)">
<mask id="a" fill="white">
<use xlink:href="#c"/>
</mask>
<use fill="#B7C1DB" xlink:href="#c"/>
<g fill="#FF5C5C" mask="url(#a)">
<rect width="200" height="79"/>
</g>
<path d="m77.273 44.34v34.66h-5.303v-37.238c1.6695 0.94067 3.4445 1.803 5.303 2.5774zm50.758-2.5774v28.841c0 1.4644-1.1871 2.6515-2.6515 2.6515-1.4644 0-2.6515-1.1871-2.6515-2.6515v-26.263c1.8585-0.77439 3.6335-1.6367 5.303-2.5774z" fill="#F4F4F4" mask="url(#a)"/>
<path d="m100 48.836c21.348 0 42.424-11.872 42.424-26.517 0-6.73-4.4508-10.774-11.333-13.18 11.402 2.0445 19.288 6.1179 19.288 14.064 0 14.157-25.029 25.634-50.379 25.634zm-0.003836-1e-7c-25.349-0.0011576-50.375-11.477-50.375-25.634 0-7.9465 7.8858-12.02 19.288-14.064z" fill="#000" fill-opacity=".16" mask="url(#a)"/>
</g>
<g transform="translate(57.576 58.571)" fill="#000">
<g transform="translate(1.5152 37.143)" fill-opacity=".7">
<path d="m30.37 10.568c0 5.4475 4.759 9.8636 10.63 9.8636s10.63-4.4161 10.63-9.8636"/>
</g>
<g transform="translate(21.212 28.571)" fill-opacity=".16">
<path d="m12 5.6667c0 3.1296 4.0294 5.6667 9 5.6667s9-2.5371 9-5.6667"/>
</g>
<g transform="translate(0 5.7143)" fill-opacity=".6">
<ellipse cx="22.768" cy="15.5" rx="4.5536" ry="4.2273"/>
<path transform="translate(61.665 15.329) rotate(-4) translate(-61.665 -15.329)" d="m53.438 17.053c1.4014-2.6764 4.5568-4.5424 8.2248-4.5424 3.6551 0 6.8012 1.8528 8.2099 4.5141 0.41848 0.79055-0.17702 1.4375-0.77771 0.95811-1.8602-1.4846-4.5019-2.4118-7.4322-2.4118-2.8387 0-5.4065 0.87009-7.2554 2.2742-0.67601 0.51337-1.3793-0.0093399-0.96943-0.79214z"/>
</g>
<g fill-opacity=".6">
<g transform="translate(9.1071 4.25)" fill-rule="nonzero">
<path d="m2.7551 7.904c2.9711-3.902 11.117-6.0901 18.133-4.4819 0.8141 0.18659 1.6361-0.27811 1.836-1.0379s-0.29797-1.5271-1.1121-1.7136c-8.1483-1.8676-17.58 0.66612-21.331 5.5922-0.48561 0.63775-0.32535 1.5222 0.35796 1.9754 0.68331 0.45324 1.6309 0.30366 2.1165-0.3341z"/>
<path transform="translate(55.402 4.2778) scale(-1 1) translate(-55.402 -4.2778)" d="m46.773 7.904c2.9711-3.902 11.117-6.0901 18.133-4.4819 0.8141 0.18659 1.6361-0.27811 1.836-1.0379s-0.29797-1.5271-1.1121-1.7136c-8.1483-1.8676-17.58 0.66612-21.331 5.5922-0.48561 0.63775-0.32535 1.5222 0.35796 1.9754 0.68331 0.45324 1.6309 0.30366 2.1165-0.3341z"/>
</g>
</g>
</g>
<g>
<mask id="h" fill="white">
<use xlink:href="#f"/>
</mask>
<g mask="url(#h)">
<g transform="translate(-.75758)" fill-rule="evenodd">
<g transform="translate(30.376 10.714)">
<mask id="g" fill="white">
<use xlink:href="#b"/>
</mask>
<use fill="#272C2E" xlink:href="#b"/>
<g fill="#724133" mask="url(#g)">
<g transform="translate(-29.617 -10.714)">
<rect width="200" height="200"/>
</g>
</g>
</g>
<path d="m50.88 80.714c13.534-26.614 53.564-26.662 66.394-40.159 8.1847 6.9879 21.614 14.033 26.225 29.351-4.6105-13.287-18.04-17.979-26.225-24.043-12.83 11.713-52.859 11.755-66.394 34.851z" fill="#000" fill-opacity=".16"/>
<g transform="translate(47.083 60.714)" fill="none">
<g transform="translate(3.8028 1.4444)" fill-rule="nonzero" filter="url(#i)">
<path d="m50.197 8.0247c-8.3947 0-9.6055-6.561-26.87-7.4897-17.253-0.73951-22.707 4.123-22.736 7.4897 0.027963 3.1006-0.8585 11.158 10.335 20.597 11.235 11.203 22.745 7.4044 26.87 3.7449 4.1383-1.6912 8.8577-16.868 12.402-16.852s8.2634 15.161 12.402 16.852c4.1251 3.6595 15.635 7.4586 26.87-3.7449 11.193-9.4383 10.307-17.496 10.335-20.597-0.029475-3.3667-5.4829-8.2292-22.736-7.4897-17.265 0.92868-18.476 7.4897-26.87 7.4897z" fill="#F4F4F4"/>
<path d="m41.929 15.514c0.28974-5.5309-9.8217-11.439-20.669-11.235-10.842 0.21564-12.254 6.827-12.402 9.3621-0.26531 5.874 6.3639 19.077 18.602 18.724 12.239-0.36759 14.301-13.202 14.469-16.852z" fill="#2F383B"/>
<path transform="translate(75 18.323) scale(-1 1) translate(-75 -18.323)" d="m91.536 15.514c0.28974-5.5309-9.8217-11.439-20.669-11.235-10.842 0.21564-12.254 6.827-12.402 9.3621-0.26531 5.874 6.3639 19.077 18.602 18.724 12.239-0.36759 14.301-13.202 14.469-16.852z" fill="#2F383B"/>
</g>
</g>
</g>
</g>
</g>
</g>
</g>
</svg>
